X:370
T:Red Haired Boy
C:Traditional
N:Transcribed by Rod B.
R:bluegrass
L:1/8
Q:1/4=220
M:4/4
K:A
z8 | EA zB AB cd | ed ce d2 cd | eA ze A2 dc | BA =GF GB AG | EF AE cB F2 | AB Ac d2 (3Bcd | 
e2 fg af ed | cA BG A2 {=F}^F2 | E2 A2 AB cd | ef ec dB cd | e2 A2 cd cA | BA =GF GB FG | 
EF Ac ea c'e' | c'a ec d2 cd | e/f/g ab af ed | cA FE A2 ef | =g2 (3fgf e2 ag | 
fd ec d2 cd | ef ec A2 dc | BA =GF G2 GF | EA zB A2 cd | ef ec d2 cd | e2 a2 af ed | 
c2 (3BcB A2 ef | =gf ee/f/ gf eg | fe dc dB cd | ea ed cB Ac | BA =GF E4 | (3EFA =c^c A2 AA | 
BA Bc d2 D^D | E=G =c^c A=c ^cA | =c^c AF A4 | 


